public/assets/messenger.svg

<svg width="142" height="50" viewBox="0 0 142 50" fill="none" xmlns="http://www.w3.org/2000/svg">
<rect x="141.5" y="49.5" width="141" height="49" rx="6.5" transform="rotate(-180 141.5 49.5)" fill="white" stroke="url(#paint0_linear_2329_169)"/>
<rect x="13" y="5" width="40" height="40" rx="8" fill="white"/>
<g clip-path="url(#clip0_2329_169)">
<path fill-rule="evenodd" clip-rule="evenodd" d="M32.9991 12.5547C26.0365 12.5547 20.6404 17.6497 20.6404 24.5309C20.6404 28.1304 22.1174 31.2406 24.5221 33.3894C24.7235 33.5708 24.8453 33.8217 24.8553 34.0924L24.9224 36.2884C24.9448 36.989 25.6684 37.4436 26.31 37.1628L28.7619 36.0823C28.9693 35.9905 29.202 35.9729 29.4208 36.0326C30.5473 36.3431 31.7484 36.507 32.9991 36.507C39.9618 36.507 45.3579 31.412 45.3579 24.5309C45.3579 17.6497 39.9618 12.5547 32.9991 12.5547Z" fill="url(#paint1_linear_2329_169)"/>
<path fill-rule="evenodd" clip-rule="evenodd" d="M25.5804 28.0342L29.2109 22.2809C29.7878 21.3667 31.0262 21.1381 31.8915 21.7865L34.7785 23.9502C34.9075 24.0466 35.0643 24.0985 35.2253 24.0981C35.3863 24.0976 35.5428 24.0449 35.6713 23.9478L39.5704 20.9916C40.0901 20.5966 40.7715 21.2202 40.4208 21.7716L36.7928 27.5225C36.2159 28.4367 34.9775 28.6652 34.1122 28.0168L31.2252 25.8531C31.0962 25.7567 30.9394 25.7049 30.7784 25.7053C30.6174 25.7057 30.4609 25.7585 30.3324 25.8556L26.4308 28.8143C25.9112 29.2093 25.2298 28.5857 25.5804 28.0342Z" fill="white"/>
</g>
<path d="M57.98 30V19.92H59.114L62.922 27.949L66.709 19.92H67.857V29.993H66.674V22.657L63.251 30H62.586L59.163 22.657V30H57.98ZM73.0958 30.21C72.3538 30.21 71.7052 30.0467 71.1498 29.72C70.5992 29.3887 70.1698 28.929 69.8618 28.341C69.5538 27.7483 69.3998 27.0577 69.3998 26.269C69.3998 25.443 69.5515 24.729 69.8548 24.127C70.1582 23.5203 70.5805 23.0537 71.1218 22.727C71.6678 22.3957 72.3072 22.23 73.0398 22.23C73.8005 22.23 74.4468 22.405 74.9788 22.755C75.5155 23.105 75.9168 23.6043 76.1828 24.253C76.4535 24.9017 76.5702 25.674 76.5328 26.57H75.2728V26.122C75.2588 25.1933 75.0698 24.5003 74.7058 24.043C74.3418 23.581 73.8005 23.35 73.0818 23.35C72.3118 23.35 71.7262 23.5973 71.3248 24.092C70.9235 24.5867 70.7228 25.296 70.7228 26.22C70.7228 27.1113 70.9235 27.802 71.3248 28.292C71.7262 28.782 72.2978 29.027 73.0398 29.027C73.5392 29.027 73.9732 28.9127 74.3418 28.684C74.7105 28.4553 74.9998 28.1263 75.2098 27.697L76.4068 28.11C76.1128 28.7773 75.6695 29.2953 75.0768 29.664C74.4888 30.028 73.8285 30.21 73.0958 30.21ZM70.3028 26.57V25.569H75.8888V26.57H70.3028ZM80.9473 30.203C80.0467 30.203 79.307 30.007 78.7283 29.615C78.1543 29.2183 77.802 28.6653 77.6713 27.956L78.9453 27.753C79.048 28.1637 79.2837 28.4903 79.6523 28.733C80.021 28.971 80.4783 29.09 81.0243 29.09C81.5423 29.09 81.9483 28.9827 82.2423 28.768C82.5363 28.5533 82.6833 28.2617 82.6833 27.893C82.6833 27.6783 82.6343 27.5057 82.5363 27.375C82.4383 27.2397 82.2353 27.1137 81.9273 26.997C81.624 26.8803 81.1643 26.7403 80.5483 26.577C79.881 26.3997 79.356 26.2153 78.9733 26.024C78.5907 25.8327 78.3177 25.611 78.1543 25.359C77.991 25.107 77.9093 24.8013 77.9093 24.442C77.9093 23.9987 78.0307 23.6113 78.2733 23.28C78.516 22.944 78.8543 22.685 79.2883 22.503C79.727 22.321 80.2357 22.23 80.8143 22.23C81.3883 22.23 81.9017 22.321 82.3543 22.503C82.807 22.685 83.171 22.944 83.4463 23.28C83.7263 23.6113 83.892 23.9987 83.9433 24.442L82.6693 24.673C82.6087 24.267 82.4127 23.9473 82.0813 23.714C81.7547 23.4807 81.3323 23.357 80.8143 23.343C80.3243 23.3243 79.9253 23.4107 79.6173 23.602C79.314 23.7933 79.1623 24.0523 79.1623 24.379C79.1623 24.561 79.2183 24.7173 79.3303 24.848C79.447 24.9787 79.6593 25.1023 79.9673 25.219C80.28 25.3357 80.7327 25.4687 81.3253 25.618C81.9927 25.786 82.5177 25.9703 82.9003 26.171C83.2877 26.367 83.563 26.6003 83.7263 26.871C83.8897 27.137 83.9713 27.466 83.9713 27.858C83.9713 28.586 83.703 29.16 83.1663 29.58C82.6297 29.9953 81.89 30.203 80.9473 30.203ZM88.3712 30.203C87.4705 30.203 86.7308 30.007 86.1522 29.615C85.5782 29.2183 85.2258 28.6653 85.0952 27.956L86.3692 27.753C86.4718 28.1637 86.7075 28.4903 87.0762 28.733C87.4448 28.971 87.9022 29.09 88.4482 29.09C88.9662 29.09 89.3722 28.9827 89.6662 28.768C89.9602 28.5533 90.1072 28.2617 90.1072 27.893C90.1072 27.6783 90.0582 27.5057 89.9602 27.375C89.8622 27.2397 89.6592 27.1137 89.3512 26.997C89.0478 26.8803 88.5882 26.7403 87.9722 26.577C87.3048 26.3997 86.7798 26.2153 86.3972 26.024C86.0145 25.8327 85.7415 25.611 85.5782 25.359C85.4148 25.107 85.3332 24.8013 85.3332 24.442C85.3332 23.9987 85.4545 23.6113 85.6972 23.28C85.9398 22.944 86.2782 22.685 86.7122 22.503C87.1508 22.321 87.6595 22.23 88.2382 22.23C88.8122 22.23 89.3255 22.321 89.7782 22.503C90.2308 22.685 90.5948 22.944 90.8702 23.28C91.1502 23.6113 91.3158 23.9987 91.3672 24.442L90.0932 24.673C90.0325 24.267 89.8365 23.9473 89.5052 23.714C89.1785 23.4807 88.7562 23.357 88.2382 23.343C87.7482 23.3243 87.3492 23.4107 87.0412 23.602C86.7378 23.7933 86.5862 24.0523 86.5862 24.379C86.5862 24.561 86.6422 24.7173 86.7542 24.848C86.8708 24.9787 87.0832 25.1023 87.3912 25.219C87.7038 25.3357 88.1565 25.4687 88.7492 25.618C89.4165 25.786 89.9415 25.9703 90.3242 26.171C90.7115 26.367 90.9868 26.6003 91.1502 26.871C91.3135 27.137 91.3952 27.466 91.3952 27.858C91.3952 28.586 91.1268 29.16 90.5902 29.58C90.0535 29.9953 89.3138 30.203 88.3712 30.203ZM96.215 30.21C95.473 30.21 94.8243 30.0467 94.269 29.72C93.7183 29.3887 93.289 28.929 92.981 28.341C92.673 27.7483 92.519 27.0577 92.519 26.269C92.519 25.443 92.6707 24.729 92.974 24.127C93.2773 23.5203 93.6997 23.0537 94.241 22.727C94.787 22.3957 95.4263 22.23 96.159 22.23C96.9197 22.23 97.566 22.405 98.098 22.755C98.6347 23.105 99.036 23.6043 99.302 24.253C99.5727 24.9017 99.6893 25.674 99.652 26.57H98.392V26.122C98.378 25.1933 98.189 24.5003 97.825 24.043C97.461 23.581 96.9197 23.35 96.201 23.35C95.431 23.35 94.8453 23.5973 94.444 24.092C94.0427 24.5867 93.842 25.296 93.842 26.22C93.842 27.1113 94.0427 27.802 94.444 28.292C94.8453 28.782 95.417 29.027 96.159 29.027C96.6583 29.027 97.0923 28.9127 97.461 28.684C97.8297 28.4553 98.119 28.1263 98.329 27.697L99.526 28.11C99.232 28.7773 98.7887 29.2953 98.196 29.664C97.608 30.028 96.9477 30.21 96.215 30.21ZM93.422 26.57V25.569H99.008V26.57H93.422ZM106.388 30V26.213C106.388 25.8537 106.356 25.5083 106.29 25.177C106.23 24.8457 106.12 24.5493 105.961 24.288C105.807 24.022 105.597 23.812 105.331 23.658C105.07 23.504 104.739 23.427 104.337 23.427C104.025 23.427 103.74 23.4807 103.483 23.588C103.231 23.6907 103.014 23.8493 102.832 24.064C102.65 24.2787 102.508 24.5493 102.405 24.876C102.307 25.198 102.258 25.5783 102.258 26.017L101.439 25.765C101.439 25.0323 101.57 24.4047 101.831 23.882C102.097 23.3547 102.468 22.951 102.944 22.671C103.425 22.3863 103.99 22.244 104.638 22.244C105.128 22.244 105.546 22.321 105.891 22.475C106.237 22.629 106.524 22.8343 106.752 23.091C106.981 23.343 107.161 23.6277 107.291 23.945C107.422 24.2577 107.513 24.5773 107.564 24.904C107.62 25.226 107.648 25.5317 107.648 25.821V30H106.388ZM100.998 30V22.44H102.118V24.463H102.258V30H100.998ZM112.527 33.57C112.131 33.57 111.743 33.5093 111.365 33.388C110.987 33.2667 110.64 33.0823 110.322 32.835C110.01 32.5923 109.748 32.2843 109.538 31.911L110.679 31.309C110.866 31.6777 111.13 31.946 111.47 32.114C111.816 32.282 112.17 32.366 112.534 32.366C113.015 32.366 113.414 32.2773 113.731 32.1C114.049 31.9273 114.282 31.6683 114.431 31.323C114.585 30.9777 114.66 30.5483 114.655 30.035V27.97H114.802V22.44H115.908V30.049C115.908 30.2543 115.901 30.4527 115.887 30.644C115.878 30.8353 115.855 31.0243 115.817 31.211C115.719 31.7477 115.526 32.1887 115.236 32.534C114.947 32.884 114.574 33.143 114.116 33.311C113.659 33.4837 113.129 33.57 112.527 33.57ZM112.436 30.21C111.732 30.21 111.127 30.035 110.623 29.685C110.119 29.3303 109.73 28.852 109.454 28.25C109.184 27.648 109.048 26.969 109.048 26.213C109.048 25.457 109.184 24.778 109.454 24.176C109.73 23.574 110.119 23.1003 110.623 22.755C111.127 22.405 111.729 22.23 112.429 22.23C113.143 22.23 113.743 22.4027 114.228 22.748C114.714 23.0933 115.08 23.567 115.327 24.169C115.579 24.771 115.705 25.4523 115.705 26.213C115.705 26.9643 115.579 27.6433 115.327 28.25C115.08 28.852 114.714 29.3303 114.228 29.685C113.743 30.035 113.146 30.21 112.436 30.21ZM112.59 29.069C113.099 29.069 113.517 28.9477 113.843 28.705C114.17 28.4577 114.41 28.1193 114.564 27.69C114.723 27.256 114.802 26.7637 114.802 26.213C114.802 25.653 114.723 25.1607 114.564 24.736C114.41 24.3067 114.172 23.973 113.85 23.735C113.528 23.4923 113.12 23.371 112.625 23.371C112.112 23.371 111.687 23.497 111.351 23.749C111.02 24.001 110.773 24.3417 110.609 24.771C110.451 25.2003 110.371 25.681 110.371 26.213C110.371 26.7497 110.453 27.235 110.616 27.669C110.78 28.0983 111.025 28.439 111.351 28.691C111.683 28.943 112.096 29.069 112.59 29.069ZM121.139 30.21C120.397 30.21 119.748 30.0467 119.193 29.72C118.642 29.3887 118.213 28.929 117.905 28.341C117.597 27.7483 117.443 27.0577 117.443 26.269C117.443 25.443 117.594 24.729 117.898 24.127C118.201 23.5203 118.623 23.0537 119.165 22.727C119.711 22.3957 120.35 22.23 121.083 22.23C121.843 22.23 122.49 22.405 123.022 22.755C123.558 23.105 123.96 23.6043 124.226 24.253C124.496 24.9017 124.613 25.674 124.576 26.57H123.316V26.122C123.302 25.1933 123.113 24.5003 122.749 24.043C122.385 23.581 121.843 23.35 121.125 23.35C120.355 23.35 119.769 23.5973 119.368 24.092C118.966 24.5867 118.766 25.296 118.766 26.22C118.766 27.1113 118.966 27.802 119.368 28.292C119.769 28.782 120.341 29.027 121.083 29.027C121.582 29.027 122.016 28.9127 122.385 28.684C122.753 28.4553 123.043 28.1263 123.253 27.697L124.45 28.11C124.156 28.7773 123.712 29.2953 123.12 29.664C122.532 30.028 121.871 30.21 121.139 30.21ZM118.346 26.57V25.569H123.932V26.57H118.346ZM126.134 30V22.44H127.247V24.267L127.065 24.029C127.154 23.7957 127.268 23.581 127.408 23.385C127.553 23.189 127.714 23.028 127.891 22.902C128.087 22.7433 128.309 22.622 128.556 22.538C128.804 22.454 129.056 22.405 129.312 22.391C129.569 22.3723 129.809 22.3887 130.033 22.44V23.609C129.772 23.539 129.485 23.5203 129.172 23.553C128.86 23.5857 128.57 23.7 128.304 23.896C128.062 24.0687 127.873 24.2787 127.737 24.526C127.607 24.7733 127.516 25.0417 127.464 25.331C127.413 25.6157 127.387 25.9073 127.387 26.206V30H126.134Z" fill="#475367"/>
<defs>
<linearGradient id="paint0_linear_2329_169" x1="211" y1="49" x2="211" y2="97" gradientUnits="userSpaceOnUse">
<stop stop-color="#E4E7EC"/>
<stop offset="1" stop-color="white"/>
</linearGradient>
<linearGradient id="paint1_linear_2329_169" x1="4964.14" y1="12.5547" x2="4964.14" y2="9958.08" gradientUnits="userSpaceOnUse">
<stop stop-color="#00B2FF"/>
<stop offset="1" stop-color="#006AFF"/>
</linearGradient>
<clipPath id="clip0_2329_169">
<rect width="24.8889" height="24.8889" fill="white" transform="translate(20.5547 12.5547)"/>
</clipPath>
</defs>
</svg>

<svg xmlns="http://www.w3.org/2000/svg" width="142" height="50" fill="none" xmlns:v="https://vecta.io/nano"><g fill="#fff"><rect x="141.5" y="49.5" width="141" height="49" rx="6.5" transform="rotate(180 141.5 49.5)" stroke="url(#A)"/><rect x="13" y="5" width="40" height="40" rx="8"/></g><g clip-path="url(#C)" fill-rule="evenodd"><path d="M32.999 12.555c-6.963 0-12.359 5.095-12.359 11.976 0 3.6 1.477 6.71 3.882 8.859.201.181.323.432.333.703l.067 2.196a.99.99 0 0 0 1.388.874l2.452-1.081c.207-.092.44-.109.659-.05 1.127.31 2.328.474 3.578.474 6.963 0 12.359-5.095 12.359-11.976s-5.396-11.976-12.359-11.976z" fill="url(#B)"/><path d="M25.58 28.034l3.63-5.753c.577-.914 1.815-1.143 2.681-.494l2.887 2.164c.129.096.286.148.447.148s.318-.053.446-.15l3.899-2.956a.59.59 0 0 1 .85.78l-3.628 5.751c-.577.914-1.815 1.143-2.681.494l-2.887-2.164c-.129-.096-.286-.148-.447-.148s-.318.053-.446.15l-3.902 2.959a.59.59 0 0 1-.85-.78z" fill="#fff"/></g><path d="M57.98 30V19.92h1.134l3.808 8.029 3.787-8.029h1.148v10.073h-1.183v-7.336L63.251 30h-.665l-3.423-7.343V30H57.98zm15.116.21c-.742 0-1.391-.163-1.946-.49s-.98-.791-1.288-1.379-.462-1.283-.462-2.072c0-.826.152-1.54.455-2.142s.726-1.073 1.267-1.4 1.185-.497 1.918-.497c.761 0 1.407.175 1.939.525s.938.849 1.204 1.498.387 1.421.35 2.317h-1.26v-.448c-.014-.929-.203-1.622-.567-2.079s-.905-.693-1.624-.693c-.77 0-1.356.247-1.757.742s-.602 1.204-.602 2.128c0 .891.201 1.582.602 2.072s.973.735 1.715.735c.499 0 .933-.114 1.302-.343s.658-.558.868-.987l1.197.413a3.39 3.39 0 0 1-1.33 1.554c-.588.364-1.248.546-1.981.546zm-2.793-3.64v-1.001h5.586v1.001h-5.586zm10.644 3.633c-.901 0-1.64-.196-2.219-.588a2.48 2.48 0 0 1-1.057-1.659l1.274-.203c.103.411.338.737.707.98s.826.357 1.372.357c.518 0 .924-.107 1.218-.322s.441-.506.441-.875c0-.215-.049-.387-.147-.518s-.301-.261-.609-.378-.763-.257-1.379-.42c-.667-.177-1.192-.362-1.575-.553s-.656-.413-.819-.665-.245-.558-.245-.917c0-.443.121-.831.364-1.162s.581-.595 1.015-.777.947-.273 1.526-.273 1.087.091 1.54.273.817.441 1.092.777a2.14 2.14 0 0 1 .497 1.162l-1.274.231c-.061-.406-.257-.726-.588-.959s-.749-.357-1.267-.371c-.49-.019-.889.068-1.197.259s-.455.45-.455.777c0 .182.056.338.168.469s.329.254.637.371.765.25 1.358.399c.667.168 1.192.352 1.575.553s.663.429.826.7.245.595.245.987c0 .728-.268 1.302-.805 1.722s-1.276.623-2.219.623zm7.424 0c-.901 0-1.64-.196-2.219-.588a2.48 2.48 0 0 1-1.057-1.659l1.274-.203c.103.411.338.737.707.98s.826.357 1.372.357c.518 0 .924-.107 1.218-.322s.441-.506.441-.875c0-.215-.049-.387-.147-.518s-.301-.261-.609-.378-.763-.257-1.379-.42c-.667-.177-1.192-.362-1.575-.553s-.656-.413-.819-.665-.245-.558-.245-.917c0-.443.121-.831.364-1.162s.581-.595 1.015-.777.947-.273 1.526-.273 1.087.091 1.54.273.817.441 1.092.777a2.14 2.14 0 0 1 .497 1.162l-1.274.231c-.061-.406-.257-.726-.588-.959s-.749-.357-1.267-.371c-.49-.019-.889.068-1.197.259s-.455.45-.455.777c0 .182.056.338.168.469s.329.254.637.371.765.25 1.358.399c.667.168 1.192.352 1.575.553s.663.429.826.7.245.595.245.987c0 .728-.268 1.302-.805 1.722s-1.276.623-2.219.623zm7.844.007c-.742 0-1.391-.163-1.946-.49a3.43 3.43 0 0 1-1.288-1.379c-.308-.593-.462-1.283-.462-2.072 0-.826.152-1.54.455-2.142s.726-1.073 1.267-1.4 1.185-.497 1.918-.497c.761 0 1.407.175 1.939.525s.938.849 1.204 1.498.387 1.421.35 2.317h-1.26v-.448c-.014-.929-.203-1.622-.567-2.079s-.905-.693-1.624-.693c-.77 0-1.356.247-1.757.742s-.602 1.204-.602 2.128c0 .891.201 1.582.602 2.072s.973.735 1.715.735c.499 0 .933-.114 1.302-.343s.658-.558.868-.987l1.197.413a3.39 3.39 0 0 1-1.33 1.554c-.588.364-1.248.546-1.981.546zm-2.793-3.64v-1.001h5.586v1.001h-5.586zM106.388 30v-3.787c0-.359-.032-.705-.098-1.036-.06-.331-.17-.628-.329-.889a1.7 1.7 0 0 0-.63-.63c-.261-.154-.592-.231-.994-.231-.312 0-.597.054-.854.161a1.67 1.67 0 0 0-.651.476c-.182.215-.324.485-.427.812s-.147.702-.147 1.141l-.819-.252c0-.733.131-1.36.392-1.883a2.86 2.86 0 0 1 1.113-1.211c.481-.285 1.046-.427 1.694-.427.49 0 .908.077 1.253.231s.633.359.861.616a2.89 2.89 0 0 1 .539.854 4.12 4.12 0 0 1 .273.959 5.36 5.36 0 0 1 .084.917V30h-1.26zm-5.39 0v-7.56h1.12v2.023h.14V30h-1.26zm11.529 3.57c-.396 0-.784-.061-1.162-.182a3.36 3.36 0 0 1-1.043-.553c-.312-.243-.574-.551-.784-.924l1.141-.602c.187.369.451.637.791.805a2.41 2.41 0 0 0 1.064.252c.481 0 .88-.089 1.197-.266s.551-.432.7-.777.229-.775.224-1.288V27.97h.147v-5.53h1.106v7.609l-.021.595c-.009.191-.032.38-.07.567-.098.537-.291.978-.581 1.323s-.662.609-1.12.777-.987.259-1.589.259zm-.091-3.36c-.704 0-1.309-.175-1.813-.525a3.49 3.49 0 0 1-1.169-1.435c-.27-.602-.406-1.281-.406-2.037s.136-1.435.406-2.037c.276-.602.665-1.076 1.169-1.421s1.106-.525 1.806-.525c.714 0 1.314.173 1.799.518s.852.819 1.099 1.421.378 1.283.378 2.044c0 .751-.126 1.43-.378 2.037s-.613 1.08-1.099 1.435-1.082.525-1.792.525zm.154-1.141c.509 0 .927-.121 1.253-.364s.567-.586.721-1.015c.159-.434.238-.926.238-1.477 0-.56-.079-1.052-.238-1.477-.154-.429-.392-.763-.714-1.001s-.73-.364-1.225-.364c-.513 0-.938.126-1.274.378s-.578.593-.742 1.022c-.158.429-.238.91-.238 1.442s.082 1.022.245 1.456.409.77.735 1.022c.332.252.745.378 1.239.378zm8.549 1.141c-.742 0-1.391-.163-1.946-.49a3.43 3.43 0 0 1-1.288-1.379c-.308-.593-.462-1.283-.462-2.072 0-.826.151-1.54.455-2.142s.725-1.073 1.267-1.4 1.185-.497 1.918-.497c.76 0 1.407.175 1.939.525s.938.849 1.204 1.498.387 1.421.35 2.317h-1.26v-.448c-.014-.929-.203-1.622-.567-2.079s-.906-.693-1.624-.693c-.77 0-1.356.247-1.757.742s-.602 1.204-.602 2.128c0 .891.2 1.582.602 2.072s.973.735 1.715.735c.499 0 .933-.114 1.302-.343s.658-.558.868-.987l1.197.413c-.294.667-.738 1.185-1.33 1.554s-1.249.546-1.981.546zm-2.793-3.64v-1.001h5.586v1.001h-5.586zm7.788 3.43v-7.56h1.113v1.827l-.182-.238a2.85 2.85 0 0 1 .343-.644c.145-.196.306-.357.483-.483.196-.159.418-.28.665-.364a2.83 2.83 0 0 1 .756-.147c.257-.019.497-.002.721.049v1.169a2.36 2.36 0 0 0-.861-.056 1.75 1.75 0 0 0-.868.343c-.242.173-.431.383-.567.63-.13.247-.221.516-.273.805a4.95 4.95 0 0 0-.077.875V30h-1.253z" fill="#475367"/><defs><linearGradient id="A" x1="211" y1="49" x2="211" y2="97" gradientUnits="userSpaceOnUse"><stop stop-color="#e4e7ec"/><stop offset="1" stop-color="#fff"/></linearGradient><linearGradient id="B" x1="4964.14" y1="12.555" x2="4964.14" y2="9958.08" gradientUnits="userSpaceOnUse"><stop stop-color="#00b2ff"/><stop offset="1" stop-color="#006aff"/></linearGradient><clipPath id="C"><path fill="#fff" transform="translate(20.555 12.555)" d="M0 0h24.889v24.889H0z"/></clipPath></defs></svg>
